X: 29559
T: Noisy Curlew, The
R: reel
M: 4/4
K: Dmajor
|:DF (3FFF DG (3GGG|DF (3FFF E2 FE|DF (3FFF ABde|fdAG FD (3DDD|
DF (3FFF DG (3GGG|DF (3FFF E2 FE|DF (3FFF ABde|fdAG FD (3DDD:|
|:fgaf g2 ag|fgaf gfeg|fgaf g2 ag|fdAG FD (3DDD|
fgaf g2 ag|fgaf gfeg|fdAF G2 ag|fdAG FD (3DDD:|

